X:65
T:Argeers. Ed.1665.
T:John Malchair's Third Collection of Tunes
%%VWML:Malchair-3619-p65
F:https://www.vwml.org/record/Malchair/3619/p65
F:www.vwml.org/topics/historic-dance-and-tune-books/Malchair
Z:Eric Conrad Feb 2020
M:C|    % marked cut time but unbarred.
L:1/8
K:D
d e f g e2 d2 [|] c2 A2 A4 [|] a2 e2 a3 g [|] f2 d2 d4 [|] \
d e f g e2 d2 [|] c3 d e2 A2 [|] B c d2 c d e f [|] d8 ||
c d e2 c d e2 [|] a2 e2 a2 e2 [|] c d e2 c d e2 [|] a2 e2 a2 e2 [|] \
a2 g f g2 a g [|] f2 e d e3 A [|] B c d e c d e f [|] d8 |]
W:% Using this W: as a space between tunes
T:The Symphony.
T:John Malchair's Third Collection of Tunes
F:https://www.vwml.org/record/Malchair/3619/p65
F:www.vwml.org/topics/historic-dance-and-tune-books/Malchair
% Z:Eric Conrad Feb 2020
M:C|
L:1/8
W:transposed from C.to A.
K:A
e4 c4 | B2GF E2FG | A2A2 B2B2 | c6 cc |
c2de f2AA | A2Bc d2FF | GEc2 B3A | A8 ||
F2FG A2GA | B2E2 E2cc | c2Bc decB | B6 ee |
f2cc d2^dd | e2BA G2ee | f2c2 B3A | A8 |]
W:% Using this W: as a space between tunes
T:The New Exchange from Ed.1665.
T:John Malchair's Third Collection of Tunes
%%VWML:Malchair-3619-p65
F:https://www.vwml.org/record/Malchair/3619/p65
F:www.vwml.org/topics/historic-dance-and-tune-books/Malchair
Z:Eric Conrad Feb 2020
M:6/4
L:1/8
K:Gmin
D2 | G3ABc B2A4 | G6- G4G2 | A3Bc2 c2B4 | A6- A4A2 |
A3Bc2 d4G2 | G2A2G2 ^F4D2 | G3ABc B2A4 | G6- G4 |]
%abc2.1

